svgs/solid/dice.svg

<svg xmlns="http://www.w3.org/2000/svg" viewBox="0 0 640 512"><!-- Font Awesome Pro 5.15.3 by @fontawesome - https://fontawesome.com License - https://fontawesome.com/license (Commercial License) --><path d="M592 192H473.26c12.69 29.59 7.12 65.2-17 89.32L320 417.58V464c0 26.51 21.49 48 48 48h224c26.51 0 48-21.49 48-48V240c0-26.51-21.49-48-48-48zM480 376c-13.25 0-24-10.75-24-24 0-13.26 10.75-24 24-24s24 10.74 24 24c0 13.25-10.75 24-24 24zm-46.37-186.7L258.7 14.37c-19.16-19.16-50.23-19.16-69.39 0L14.37 189.3c-19.16 19.16-19.16 50.23 0 69.39L189.3 433.63c19.16 19.16 50.23 19.16 69.39 0L433.63 258.7c19.16-19.17 19.16-50.24 0-69.4zM96 248c-13.25 0-24-10.75-24-24 0-13.26 10.75-24 24-24s24 10.74 24 24c0 13.25-10.75 24-24 24zm128 128c-13.25 0-24-10.75-24-24 0-13.26 10.75-24 24-24s24 10.74 24 24c0 13.25-10.75 24-24 24zm0-128c-13.25 0-24-10.75-24-24 0-13.26 10.75-24 24-24s24 10.74 24 24c0 13.25-10.75 24-24 24zm0-128c-13.25 0-24-10.75-24-24 0-13.26 10.75-24 24-24s24 10.74 24 24c0 13.25-10.75 24-24 24zm128 128c-13.25 0-24-10.75-24-24 0-13.26 10.75-24 24-24s24 10.74 24 24c0 13.25-10.75 24-24 24z"/></svg>

<svg xmlns="http://www.w3.org/2000/svg" viewBox="0 0 640 512"><!--! Font Awesome Pro 6.0.0-alpha3 by @fontawesome - https://fontawesome.com License - https://fontawesome.com/license (Commercial License) --><path d="M592 192h-118.7c4.418 10.27 6.603 21.25 6.603 32.23c0 20.7-7.865 41.38-23.63 57.14L320 417.6V464c0 26.5 21.5 48 48 48h224c26.5 0 48-21.5 48-48v-224C640 213.5 618.5 192 592 192zM480 376c-13.25 0-24-10.75-24-24s10.75-24 24-24s24 10.75 24 24S493.3 376 480 376zM447.1 223.1c0-12.56-4.782-25.13-14.35-34.76L258.8 14.35C249.1 4.781 236.5-.0035 223.1-.0035S198.9 4.781 189.2 14.35L14.35 189.2c-9.563 9.627-14.35 22.14-14.35 34.71s4.785 25.18 14.35 34.8l174.9 174.9C198.9 443.2 211.4 447.1 224 447.1s25.13-4.782 34.75-14.35l174.9-174.9C443.2 249.1 447.1 236.6 447.1 223.1zM96 248C82.75 248 72 237.3 72 224S82.75 200 96 200S120 210.8 120 224S109.3 248 96 248zM224 376c-13.25 0-24-10.75-24-24S210.8 328 224 328S248 338.8 248 352S237.3 376 224 376zM224 248C210.8 248 200 237.3 200 224S210.8 200 224 200S248 210.8 248 224S237.3 248 224 248zM224 120C210.8 120 200 109.3 200 96S210.8 72 224 72S248 82.75 248 96S237.3 120 224 120zM352 248c-13.25 0-24-10.75-24-24S338.8 200 352 200S376 210.8 376 224S365.3 248 352 248z"/></svg>
